icon/cg/cast.svg

<svg viewBox="0 0 24 24" fill="none" xmlns="http://www.w3.org/2000/svg" height="1em" width="1em">
  <path d="M20 6H4V8H2V6C2 4.89543 2.89543 4 4 4H20C21.1046 4 22 4.89543 22 6V18C22 19.1046 21.1046 20 20 20H15V18H20V6Z" fill="currentColor"/>
  <path d="M2 13C5.86599 13 9 16.134 9 20H7C7 17.2386 4.76142 15 2 15V13Z" fill="currentColor"/>
  <path d="M2 17C3.65685 17 5 18.3431 5 20H2V17Z" fill="currentColor"/>
  <path d="M2 9C8.07513 9 13 13.9249 13 20H11C11 15.0294 6.97056 11 2 11V9Z" fill="currentColor"/>
</svg>

<svg width="24" height="24" fill="none" xmlns="http://www.w3.org/2000/svg"><path d="M20 6H4v2H2V6a2 2 0 0 1 2-2h16a2 2 0 0 1 2 2v12a2 2 0 0 1-2 2h-5v-2h5V6ZM2 13a7 7 0 0 1 7 7H7a5 5 0 0 0-5-5v-2ZM2 17a3 3 0 0 1 3 3H2v-3Z" fill="currentColor"/><path d="M2 9c6.075 0 11 4.925 11 11h-2a9 9 0 0 0-9-9V9Z" fill="currentColor"/></svg>
